!! 00000] TT[00
!!!OTL: Ni song wo yizhi meigui hua
!!!ARE: Xinjiang
!! Ethnic Group: Weiwuer
!! Zhongguo Minge Xuan S.260
!!!SCT: C1155
!!!YEM: Copyright 1995, estate of Helmut Schaffrath.
**kern
*ICvox
*Ivox
*M2/4
*k[f#c#g#]
*A:
{8a
16a
16a
8a
[8a
=1
8.a]
16a
8.dd
16cc#
=2
8dd
[4.ee
=3
2ee]}
=4
{8ffn
16ffn
16ffn
8ffn
8ffn
=5
8ee
8dd
8cc#
8dd
=6
[2dd
=7
2dd]}
=8
{8ccn
16ccn
16ccn
8ccn
8ccn
=9
4ccn
4dd
=10
8ee
4ee
8ccn
=11
8b
8a
4a}
=12
{8ccn
16ccn
16ccn
8ccn
8ccn
=13
8b
8a
8g#
8a
=14
[2a
=15
2a]}
=16
{8ccn
16ccn
16ccn
8ccn
8ccn
=17
4ccn
4dd
=18
8ee
4ee
8ccn
=19
8b
8a
4a}
=20
{8ccn
16ccn
16ccn
8ccn
8ccn
=21
8b
8a
8g#
8a
=22
[2a
=23
2a]}
==
!!!AGN: Qingge
!! +++ Grundton muá C sein! +++ 
!!!ONB: ESAC (Essen Associative Code) Database: CHINA_019
!!!AMT: simple duple
!!!AIN: vox
!!!EED: Helmut Schaffrath
!!!EEV: 1.0
*-
!!!ONB: Tied note syntax fixed by Craig Sapp, 2004/05/03/
